X:133
%%pagewidth 8in
%%vocalfont Baskerville10Pro 13
T:Gathering peascods
M:C
L:1/8
K:G
%%score 1 2
V:1 clef-treble
V:2 clef-bass octave=-1
V:1
%%pos orn below
"_f"d4d2d2&G8|B3c d2[GBd]2&G6x2|[Gce]2[Gd]2[Fc]2[GB]2|[FA]6"_pp""^rall."[FB]2|
w:How plea-sant is it in the blos-som of the year, To
V:2
[GB]8|d4x4&G3AB2G2|c2B2A2G2|d6D2|
V:1
[EA]2[DG]2G2F2&x4C4|[B,G]8|"_f""^a tempo."d4d2d2&[GB]4[FA]4|B3c d2d2&G4G2F2|e2d2[Ac]2[GB]2&E4x4|
w:stray and find a nook, Where nought doth fill the hol-low of the list'-ning
V:2
C2B,2A,2D2|G,8|G4D4|E4B,4|C4A,4|
V:1
[FA]6[FB]2|"^rall.""_pp"[EA]2[DG]2G2F2&x4C4|[B,G]6||"_mf""^a tempo."G2|F2D2F2G2&A,8|[DA]4B2A2&x4D4|
w:ear, Ex-cept the mur-m'ring brook; Or bird in neighb'-ring grove, That in
V:2
D6D2|C2B,2A,2D2|G,6||z2|D4D,2E,2|F,4G,2F,2|
V:1
(GA)B2A2G2&D4^C4|[DF]6"_p""^rall."[^CF]2|[B,E]2[A,D]2E3D&x6^C2|D8|"_mf""^a tempo."d4d2d2&G4[FA]4|
w:so-*li-tude doth love To breathe his lone-ly hymn! Lost in the 
V:2
E,4A,4|B,6A,2|G,2F,2G4&x4E,2A,2|F8&D,4D3=C|B,4D4|
V:1
B3cd2d2&G4A4|e2d2[Ec]2[DB]2&[^GB]4G4|[CA]4[D^F]2"_p""^rall."[FB]2&A2=G3x3|[EA]2[DG]2G2F2&x4C4|[B,G]8||
w:min-gled song, I care-less roam a-long,* From morn to twi-light dim.
V:2
G4=F4|E4E4|A4D2D2|C2B,2A,2D2|G8||

